X:193
T:The Steam Boat
B:Kerr's Merry Melodies Book 1 (Glasgow c1803)
Z:Nigel Gatherer
M:4/4
L:1/8
K:G
d2|g2 bg d2 gd|BcdB G2 B2|c2 ec A2 cA|FGAB cdef|g2 bg d2 gd|
BcdB G2 AB|cedc BAGF|A2 G2 G2::Bc|d2 d^c dBGB|c2 cB cAFA|
GABc defg|fgag fed^c|d2 d^c dBGB|c2 cB cAFA|cedc BAGF|A2 G2 G2:|
<end>
<start>
